assets/images/splash/bullet3.svg

<svg width="39" height="33" viewBox="0 0 39 33" fill="none" xmlns="http://www.w3.org/2000/svg">
<path d="M15.6853 33L14.25 32.9932C14.2809 32.6073 15.1779 23.5135 29.9258 21L30.75 21.2851C16.5971 23.6973 15.6923 32.9073 15.6853 33Z" fill="#094142"/>
<path d="M15.4244 33L14.25 32.9834C14.2752 32.0429 15.0092 9.87668 27.0757 3.75L27.75 4.44503C16.1704 10.3246 15.4301 32.774 15.4244 33Z" fill="#094142"/>
<path d="M24.75 12C28.0637 12 30.75 9.31371 30.75 6C30.75 2.68629 28.0637 0 24.75 0C21.4363 0 18.75 2.68629 18.75 6C18.75 9.31371 21.4363 12 24.75 12Z" fill="#009688"/>
<path d="M33 26.25C36.3137 26.25 39 23.5637 39 20.25C39 16.9363 36.3137 14.25 33 14.25C29.6863 14.25 27 16.9363 27 20.25C27 23.5637 29.6863 26.25 33 26.25Z" fill="#009688"/>
<path d="M15.5866 33L16.5 32.9932C16.4804 32.6073 15.9095 23.5135 6.52449 21L6 21.2851C15.0064 23.6973 15.5821 32.9073 15.5866 33Z" fill="#094142"/>
<path d="M6 26.25C9.31371 26.25 12 23.5637 12 20.25C12 16.9363 9.31371 14.25 6 14.25C2.68629 14.25 0 16.9363 0 20.25C0 23.5637 2.68629 26.25 6 26.25Z" fill="#009688"/>
</svg>

<svg xmlns="http://www.w3.org/2000/svg" width="39" height="33" fill="none" xmlns:v="https://vecta.io/nano"><g fill="#094142"><path d="M15.685 33l-1.435-.007c.031-.386.928-9.48 15.676-11.993l.824.285C16.597 23.697 15.692 32.907 15.685 33z"/><path d="M15.424 33l-1.174-.017c.025-.941.759-23.107 12.826-29.233l.674.695C16.17 10.325 15.43 32.774 15.424 33z"/></g><path d="M24.75 12a6 6 0 1 0 0-12 6 6 0 1 0 0 12zM33 26.25a6 6 0 1 0 0-12 6 6 0 1 0 0 12z" fill="#009688"/><path d="M15.587 33l.913-.007c-.02-.386-.591-9.48-9.976-11.993L6 21.285c9.006 2.412 9.582 11.622 9.587 11.715z" fill="#094142"/><path d="M6 26.25a6 6 0 1 0 0-12 6 6 0 1 0 0 12z" fill="#009688"/></svg>
